src/lib/packages/icons/src/assets/filled/voicemail.svg

<svg xmlns="http://www.w3.org/2000/svg" width="24" height="24" fill="none"><path fill="currentColor" d="M17.5 7a4.505 4.505 0 0 0-4.5 4.5c0 .925.282 1.784.762 2.5h-3.523c.48-.716.762-1.575.762-2.5 0-2.481-2.019-4.5-4.5-4.5a4.505 4.505 0 0 0-4.5 4.5c0 2.481 2.019 4.5 4.5 4.5h11c2.481 0 4.5-2.019 4.5-4.5S19.981 7 17.5 7ZM4 11.5C4 10.122 5.121 9 6.5 9S9 10.122 9 11.5 7.879 14 6.5 14A2.503 2.503 0 0 1 4 11.5ZM17.5 14a2.503 2.503 0 0 1-2.5-2.5c0-1.378 1.121-2.5 2.5-2.5s2.5 1.122 2.5 2.5-1.121 2.5-2.5 2.5Z"/></svg>

<svg width="24" height="24" viewBox="0 0 24 24" fill="none" xmlns="http://www.w3.org/2000/svg">
<path d="M17.5 7C15.019 7 13 9.019 13 11.5C13 12.425 13.282 13.284 13.762 14H10.239C10.719 13.284 11.001 12.425 11.001 11.5C11.001 9.019 8.98198 7 6.50098 7C4.01998 7 2.00098 9.019 2.00098 11.5C2.00098 13.981 4.01998 16 6.50098 16H17.501C19.982 16 22.001 13.981 22.001 11.5C22.001 9.019 19.981 7 17.5 7ZM4 11.5C4 10.122 5.121 9 6.5 9C7.879 9 9 10.122 9 11.5C9 12.878 7.879 14 6.5 14C5.121 14 4 12.878 4 11.5ZM17.5 14C16.121 14 15 12.878 15 11.5C15 10.122 16.121 9 17.5 9C18.879 9 20 10.122 20 11.5C20 12.878 18.879 14 17.5 14Z" fill="currentColor"/>
</svg>
